src/assets/images/icons/youtube.svg

<svg width="24" height="16" viewBox="0 0 24 16" fill="none" xmlns="http://www.w3.org/2000/svg">
<path fill-rule="evenodd" clip-rule="evenodd" d="M23.3438 2.5762C23.0706 1.60169 22.2684 0.836888 21.2494 0.577842C19.4022 0.10498 12.0003 0.10498 12.0003 0.10498C12.0003 0.10498 4.59411 0.10498 2.7469 0.577842C1.7279 0.836888 0.925707 1.60169 0.652528 2.5762C0.158203 4.33607 0.158203 8.01616 0.158203 8.01616C0.158203 8.01616 0.158203 11.6922 0.652528 13.4561C0.925707 14.4265 1.7279 15.1625 2.7469 15.4216C4.59411 15.8945 12.0003 15.8945 12.0003 15.8945C12.0003 15.8945 19.4065 15.8945 21.2537 15.4216C22.2727 15.1625 23.0749 14.4265 23.3481 13.4561C23.8424 11.6922 23.8424 8.01616 23.8424 8.01616C23.8424 8.01616 23.8381 4.33607 23.3438 2.5762ZM9.57638 4.67735V11.355L15.7684 8.01616L9.57638 4.67735Z" fill="#262626"/>
</svg>

<svg width="24" height="16" fill="none" xmlns="http://www.w3.org/2000/svg"><path fill-rule="evenodd" clip-rule="evenodd" d="M23.344 2.576c-.273-.974-1.076-1.74-2.095-1.998C19.402.105 12 .105 12 .105s-7.406 0-9.253.473C1.727.837.926 1.602.653 2.576c-.495 1.76-.495 5.44-.495 5.44s0 3.676.495 5.44c.273.97 1.075 1.707 2.094 1.966 1.847.473 9.253.473 9.253.473s7.407 0 9.254-.473c1.019-.26 1.82-.995 2.094-1.966.494-1.764.494-5.44.494-5.44s-.004-3.68-.498-5.44zM9.576 4.677v6.678l6.192-3.339-6.192-3.339z" fill="#262626"/></svg>
